assets/icons/tornado.svg

<?xml version="1.0" encoding="UTF-8" standalone="no"?>
<svg viewBox="0 0 24 24" width="24" height="24" version="1.1" id="svg4" sodipodi:docname="tornado.svg" inkscape:version="1.1 (ce6663b3b7, 2021-05-25)"
   xmlns:inkscape="http://www.inkscape.org/namespaces/inkscape"
   xmlns:sodipodi="http://sodipodi.sourceforge.net/DTD/sodipodi-0.dtd"
   xmlns="http://www.w3.org/2000/svg"
   xmlns:svg="http://www.w3.org/2000/svg"
   xmlns:rdf="http://www.w3.org/1999/02/22-rdf-syntax-ns#"
   xmlns:cc="http://creativecommons.org/ns#"
   xmlns:dc="http://purl.org/dc/elements/1.1/">
   <path id="rect30" style="fill:#808080;fill-rule:evenodd;fill-opacity:1" d="M 3.5 3 C 3.223 3 3 3.2118544 3 3.4746094 L 3 3.5253906 C 3 3.7881456 3.223 4 3.5 4 L 4.5 4 C 4.223 4 4 4.223 4 4.5 C 4 4.777 4.223 5 4.5 5 L 5.5 5 C 5.223 5 5 5.223 5 5.5 C 5 5.777 5.223 6 5.5 6 L 6.5 6 C 6.223 6 6 6.2118544 6 6.4746094 L 6 6.5253906 C 6 6.7881456 6.223 7 6.5 7 L 4.5 7 C 4.223 7 4 7.2118544 4 7.4746094 L 4 7.5253906 C 4 7.7881456 4.223 8 4.5 8 L 8.5 8 C 8.223 8 8 8.2118544 8 8.4746094 L 8 8.5253906 C 8 8.7881456 8.223 9 8.5 9 L 7.5 9 C 7.223 9 7 9.2118544 7 9.4746094 L 7 9.5253906 C 7 9.7881456 7.223 10 7.5 10 L 6.5 10 C 6.223 10 6 10.211854 6 10.474609 L 6 10.525391 C 6 10.788146 6.223 11 6.5 11 L 8.5 11 C 8.223 11 8 11.211854 8 11.474609 L 8 11.525391 C 8 11.788146 8.223 12 8.5 12 L 7.5 12 C 7.223 12 7 12.211854 7 12.474609 L 7 12.525391 C 7 12.788146 7.223 13 7.5 13 L 9.5 13 C 9.223 13 9 13.211854 9 13.474609 L 9 13.525391 C 9 13.788146 9.223 14 9.5 14 L 8.5 14 C 8.223 14 8 14.211854 8 14.474609 L 8 14.525391 C 8 14.788146 8.223 15 8.5 15 L 10.5 15 C 10.223 15 10 15.211854 10 15.474609 L 10 15.525391 C 10 15.788146 10.223 16 10.5 16 C 10.223 16 10 16.211854 10 16.474609 L 10 16.525391 C 10 16.788146 10.223 17 10.5 17 L 9.5 17 C 9.223 17 9 17.211854 9 17.474609 L 9 17.525391 C 9 17.788146 9.223 18 9.5 18 L 10.5 18 C 10.223 18 10 18.211045 10 18.472656 L 10 18.527344 C 10 18.780791 10.209677 18.987417 10.474609 19 C 10.209695 19.012601 10 19.219221 10 19.472656 L 10 19.527344 C 10 19.788955 10.223 20 10.5 20 L 11.5 20 C 11.777 20 12 19.788955 12 19.527344 L 12 19.472656 C 12 19.219221 11.790305 19.012601 11.525391 19 L 12.5 19 C 12.777 19 13 18.788955 13 18.527344 L 13 18.472656 C 13 18.211045 12.777 18 12.5 18 L 11.5 18 C 11.777 18 12 17.788146 12 17.525391 L 12 17.474609 C 12 17.211854 11.777 17 11.5 17 L 12.5 17 C 12.777 17 13 16.788146 13 16.525391 L 13 16.474609 C 13 16.211854 12.777 16 12.5 16 L 13.5 16 C 13.777 16 14 15.788146 14 15.525391 L 14 15.474609 C 14 15.211854 13.777 15 13.5 15 L 12.5 15 C 12.777 15 13 14.788146 13 14.525391 L 13 14.474609 C 13 14.211854 12.777 14 12.5 14 L 13.5 14 C 13.777 14 14 13.788146 14 13.525391 L 14 13.474609 C 14 13.211854 13.777 13 13.5 13 L 12.5 13 C 12.777 13 13 12.788146 13 12.525391 L 13 12.474609 C 13 12.211854 12.777 12 12.5 12 L 13.5 12 C 13.777 12 14 11.788146 14 11.525391 L 14 11.474609 C 14 11.211854 13.777 11 13.5 11 L 14.5 11 C 14.777 11 15 10.788146 15 10.525391 L 15 10.474609 C 15 10.211854 14.777 10 14.5 10 L 15.5 10 C 15.777 10 16 9.7881456 16 9.5253906 L 16 9.4746094 C 16 9.2118544 15.777 9 15.5 9 L 16.5 9 C 16.777 9 17 8.7881456 17 8.5253906 L 17 8.4746094 C 17 8.2118544 16.777 8 16.5 8 L 17.5 8 C 17.777 8 18 7.7881456 18 7.5253906 L 18 7.4746094 C 18 7.2118544 17.777 7 17.5 7 L 19.5 7 C 19.777 7 20 6.7881456 20 6.5253906 L 20 6.4746094 C 20 6.2118544 19.777 6 19.5 6 L 17.5 6 C 17.777 6 18 5.777 18 5.5 C 18 5.223 17.777 5 17.5 5 L 16.5 5 C 16.777 5 17 4.777 17 4.5 C 17 4.223 16.777 4 16.5 4 L 17.5 4 C 17.777 4 18 3.7881456 18 3.5253906 L 18 3.4746094 C 18 3.2118544 17.777 3 17.5 3 L 3.5 3 z " />
   <metadata id="metadata10">
      <rdf:RDF>
         <cc:Work rdf:about="">
            <dc:format>image/svg+xml</dc:format>
            <dc:type rdf:resource="http://purl.org/dc/dcmitype/StillImage" />
         </cc:Work>
      </rdf:RDF>
   </metadata>
   <defs id="defs8" />
   <sodipodi:namedview pagecolor="#ffffff" bordercolor="#666666" borderopacity="1" objecttolerance="10" gridtolerance="10" guidetolerance="10" inkscape:pageopacity="0" inkscape:pageshadow="2" inkscape:window-width="1920" inkscape:window-height="1043" id="namedview6" showgrid="true" inkscape:zoom="19.445436" inkscape:cx="13.242182" inkscape:cy="10.645171" inkscape:window-x="1920" inkscape:window-y="0" inkscape:window-maximized="1" inkscape:current-layer="svg4" inkscape:pagecheckerboard="0" inkscape:snap-page="true">
      <inkscape:grid type="xygrid" id="grid835" />
   </sodipodi:namedview>
</svg>

<svg width="24" height="24" xmlns="http://www.w3.org/2000/svg"><path style="fill:gray;fill-opacity:1" d="M3.5 3c-.277 0-.5.212-.5.475v.05c0 .263.223.475.5.475h1a.499.499 0 1 0 0 1h1a.499.499 0 1 0 0 1h1c-.277 0-.5.212-.5.475v.05c0 .263.223.475.5.475h-2c-.277 0-.5.212-.5.475v.05c0 .263.223.475.5.475h4c-.277 0-.5.212-.5.475v.05c0 .263.223.475.5.475h-1c-.277 0-.5.212-.5.475v.05c0 .263.223.475.5.475h-1c-.277 0-.5.212-.5.475v.05c0 .263.223.475.5.475h2c-.277 0-.5.212-.5.475v.05c0 .263.223.475.5.475h-1c-.277 0-.5.212-.5.475v.05c0 .263.223.475.5.475h2c-.277 0-.5.212-.5.475v.05c0 .263.223.475.5.475h-1c-.277 0-.5.212-.5.475v.05c0 .263.223.475.5.475h2c-.277 0-.5.212-.5.475v.05c0 .263.223.475.5.475-.277 0-.5.212-.5.475v.05c0 .263.223.475.5.475h-1c-.277 0-.5.212-.5.475v.05c0 .263.223.475.5.475h1c-.277 0-.5.211-.5.473v.054c0 .254.21.46.475.473a.485.485 0 0 0-.475.473v.054c0 .262.223.473.5.473h1c.277 0 .5-.211.5-.473v-.054c0-.254-.21-.46-.475-.473h.975c.277 0 .5-.211.5-.473v-.054a.486.486 0 0 0-.5-.473h-1c.277 0 .5-.212.5-.475v-.05a.487.487 0 0 0-.5-.475h1c.277 0 .5-.212.5-.475v-.05a.487.487 0 0 0-.5-.475h1c.277 0 .5-.212.5-.475v-.05a.487.487 0 0 0-.5-.475h-1c.277 0 .5-.212.5-.475v-.05a.487.487 0 0 0-.5-.475h1c.277 0 .5-.212.5-.475v-.05a.487.487 0 0 0-.5-.475h-1c.277 0 .5-.212.5-.475v-.05a.487.487 0 0 0-.5-.475h1c.277 0 .5-.212.5-.475v-.05a.487.487 0 0 0-.5-.475h1c.277 0 .5-.212.5-.475v-.05a.487.487 0 0 0-.5-.475h1c.277 0 .5-.212.5-.475v-.05A.487.487 0 0 0 15.5 9h1c.277 0 .5-.212.5-.475v-.05A.487.487 0 0 0 16.5 8h1c.277 0 .5-.212.5-.475v-.05A.487.487 0 0 0 17.5 7h2c.277 0 .5-.212.5-.475v-.05A.487.487 0 0 0 19.5 6h-2a.499.499 0 1 0 0-1h-1a.499.499 0 1 0 0-1h1c.277 0 .5-.212.5-.475v-.05A.487.487 0 0 0 17.5 3h-14z"/></svg>
